X:24
T:Haymarket Hornpipe (Craig 24)
M:C
L:1/8
B:Empire Violin Collection of Hornpipes
H:Published by Thomas Craig
H:Music Publisher, &c.
H:George Street, Aberdeen, N.B.
Z:Peter Dunk December 2011
R:hornpipe
Q:1/4=140
K:F
FAcA FBdB | Acfc afcA | Bdfb Acfa | gfed cBAG |!
FAcA FBdB | Acfc afcA | Bdfb Acfa | g2e2f2||!
|: ef | gec=B c2 ef | gec=B c2 ga | bagf gfed | efcB cBAG |!
FAcA FBdB | Acfc afcA | Bdfb Acfa |1 g2e2f2 :|2 g2e2f2z2 |]

